src/shared/media/imgs/hand.svg

<!DOCTYPE svg PUBLIC "-//W3C//DTD SVG 1.1//EN" "http://www.w3.org/Graphics/SVG/1.1/DTD/svg11.dtd">
<!-- Uploaded to: SVG Repo, www.svgrepo.com, Transformed by: SVG Repo Mixer Tools -->
<svg width="800px" height="800px" viewBox="0 0 24 24" fill="none" xmlns="http://www.w3.org/2000/svg">
<g id="SVGRepo_bgCarrier" stroke-width="0"/>
<g id="SVGRepo_tracerCarrier" stroke-linecap="round" stroke-linejoin="round"/>
<g id="SVGRepo_iconCarrier"> <path fill-rule="evenodd" clip-rule="evenodd" d="M4.41377 17.859C4.77159 17.6504 5.23081 17.7713 5.43947 18.1291C6.26633 19.5471 7.53043 20.6193 9.0893 21.3151C9.46755 21.4839 9.63733 21.9274 9.46851 22.3057C9.29969 22.6839 8.85621 22.8537 8.47796 22.6849C6.66645 21.8764 5.14664 20.6046 4.14369 18.8847C3.93503 18.5269 4.05595 18.0677 4.41377 17.859Z" fill="#000000"/> <path fill-rule="evenodd" clip-rule="evenodd" d="M18.9058 3.92194C17.8919 2.88646 16.4459 2.50452 15.0303 2.9073C14.6319 3.02066 14.2171 2.78959 14.1037 2.39119C13.9904 1.99279 14.2214 1.57792 14.6198 1.46456C16.558 0.913072 18.5745 1.43959 19.9775 2.8725C20.2673 3.16846 20.2623 3.64331 19.9664 3.9331C19.6704 4.2229 19.1956 4.2179 18.9058 3.92194Z" fill="#000000"/> <path fill-rule="evenodd" clip-rule="evenodd" d="M11.1901 3.30839C10.9761 2.94131 10.3523 2.7187 9.71858 3.08085C9.08722 3.44168 8.97618 4.07772 9.18651 4.4384L11.7122 8.76952C11.9208 9.12734 11.7999 9.58656 11.4421 9.79522C11.0843 10.0039 10.6251 9.88296 10.4164 9.52514L7.04885 3.75032C6.83479 3.38324 6.21098 3.16063 5.57731 3.52278C4.94595 3.88361 4.83491 4.51965 5.04525 4.88033L8.83373 11.377C9.04239 11.7348 8.92147 12.1941 8.56365 12.4027C8.20583 12.6114 7.74661 12.4905 7.53795 12.1326L5.85418 9.24522C5.64012 8.87814 5.01631 8.65553 4.38264 9.01768C3.75128 9.37851 3.64024 10.0145 3.85058 10.3752L7.63906 16.8719C9.248 19.631 13.2184 20.5264 16.5853 18.6021C19.95 16.6792 21.146 12.8377 19.5408 10.085L17.0152 5.75387C16.8011 5.38679 16.1773 5.16418 15.5436 5.52633C14.9123 5.88716 14.8012 6.5232 15.0116 6.88389L16.6953 9.7713C16.7961 9.94411 16.8237 10.15 16.7719 10.3432C16.7201 10.5365 16.5933 10.701 16.4196 10.8003C14.8771 11.6818 14.4044 13.3863 15.0797 14.5443C15.2884 14.9022 15.1675 15.3614 14.8096 15.57C14.4518 15.7787 13.9926 15.6578 13.7839 15.3C12.8712 13.7348 13.24 11.8501 14.4189 10.5181C14.7485 10.1457 14.8613 9.60396 14.6108 9.17438L11.1901 3.30839Z" fill="#000000"/> </g>
</svg>

<svg xmlns="http://www.w3.org/2000/svg" width="800" height="800" viewBox="0 0 24 24" fill="#000" fill-rule="evenodd" xmlns:v="https://vecta.io/nano"><path d="M4.414 17.859a.75.75 0 0 1 1.026.27c.827 1.418 2.091 2.49 3.65 3.186a.75.75 0 1 1-.611 1.37c-1.812-.808-3.331-2.08-4.334-3.8a.75.75 0 0 1 .27-1.026zM18.906 3.922a3.86 3.86 0 0 0-3.875-1.015.75.75 0 1 1-.411-1.443 5.36 5.36 0 0 1 5.358 1.408.75.75 0 0 1-1.072 1.049zm-7.716-.614c-.214-.367-.838-.59-1.472-.228s-.742.997-.532 1.358l2.526 4.331a.75.75 0 0 1-1.296.756L7.049 3.75c-.214-.367-.838-.59-1.472-.228s-.742.997-.532 1.358l3.788 6.497a.75.75 0 0 1-1.296.756L5.854 9.245c-.214-.367-.838-.59-1.472-.228s-.742.997-.532 1.358l3.788 6.497c1.609 2.759 5.579 3.654 8.946 1.73s4.561-5.764 2.956-8.517l-2.526-4.331c-.214-.367-.838-.59-1.472-.228s-.742.997-.532 1.358l1.684 2.887a.75.75 0 0 1-.276 1.029c-1.542.882-2.015 2.586-1.34 3.744a.75.75 0 1 1-1.296.756c-.913-1.565-.544-3.45.635-4.782.33-.372.442-.914.192-1.344L11.19 3.308z"/></svg>
